build/bank/AlphaBank.svg

<svg xmlns="http://www.w3.org/2000/svg" fill="none" viewBox="0 0 40 40" focusable="false"><path d="M0 0H40V40H0z"/><rect width="38" height="27.444" x="1" y="7" fill="#ED352F" rx="4"/><path fill="#FFF" fill-rule="evenodd" d="M20.5855 12.2777C21.882 12.2777 22.2605 13.0404 22.5887 14.0059L25.9841 23.9935L23.4717 23.9935L22.709 21.6191L18.1627 21.6191L17.3402 23.9935L14.9774 23.9935L18.5405 14.0059C18.8861 13.0373 19.2887 12.2777 20.5855 12.2777ZM20.4658 14.8798L18.8507 19.6136L22.0511 19.6136L20.5256 14.8798L20.4658 14.8798ZM26.2374 29.5588L14.7223 29.5588L14.7223 27.1993L26.2374 27.1993L26.2374 29.5588Z"/></svg>

<svg xmlns="http://www.w3.org/2000/svg" fill="none" viewBox="0 0 40 40" focusable="false"><rect width="38" height="27.444" x="1" y="7" fill="#ED352F" rx="4"/><path fill="#FFF" fill-rule="evenodd" d="M20.58 12.27c1.3 0 1.68.77 2 1.73l3.4 9.99h-2.51l-.77-2.38h-4.54l-.82 2.38h-2.37L18.54 14c.34-.97.74-1.73 2.04-1.73m-.12 2.6-1.61 4.74h3.2l-1.53-4.74zm5.77 14.68H14.72v-2.36h11.51z"/></svg>
